X: 98
T: The Tarbolton
M: 4/4
L: 1/8
R: reel
K:Em
D|"Em"Eeed e2 BA|"G"GBAF GFEF|"D"Ddd^c d2 AF|"G"GBAG "D"FDDF|
"Em"Eeed efge|"D"fedf "Em"edBA|"G"G2BG "D7"FGAc|"G"BGAF "Em"GE E :|
|: z|"Em"gfef (3gfe be|gebe gfef|"D"d2 fd adfd|ABAG FDDF|
"G"(3GGG BG "D"(3FFF AF|"Em"E2ef gfed|"G"B3A "D7"FGAc|"G"BGAF "Em"GE E:|


